X:1
T:Benedictus
T:Antoine de Févin
T:Source : Bicinia---Tomus I---Wittemberg---G.Rhau---1545. Editor : André Vierendeels (12/06/17).
T:Notes : Original clefs : G2, C3 Editorial accidentals above  yhe staff Square bracket indicates ligature Dotted brackets indicate black notes Original note values have been halved
T:Benedictus 
T:(ex missa : "Mente tota")
T:©
T:©
C:Antoine de Févin
Z:©
%%score [ 1 2 ]
L:1/8
Q:1/4=120
M:2/2
K:Bb
V:1 treble nm="Soprano" snm="S"
V:2 treble-8 nm="Tenor" snm="T"
V:1
 G8 | G4 G4 | B6 AG | B4 A4 | z2 D3 E FG | A3 B cA B2 | B2 AG F4 | B4 A4 | d4 c4 | f4 e2 d2- | %10
w: Be-|ne- di-||* ctus,|be- * * *||||||
 d2 cB A2 B2- | Bc d4 c2 | d8 | z8 | d4 c2 d2 | d2 cB A2 G2 | B4 c4 | d3 c B2 A2 | B2 c3 BAG | %19
w: |* ne- di- *|ctus||qui ve- *|||||
 F2 B4 A2 | B8 | z2 F2 G3 A | B3 A/B/ AG G2- | G2 F2 G4- | G4 z2 A2 | A2 A2 B4 | A4 G2 F2 | %27
w: |nit,|[qui ve- *||* * nit,]|_ in|no- mi- ne|Do- * *|
 E4 D4- | D4 z2 D2- | DEFG AB c2- | cBGA Bc d2- | d2 cB A2 c2- | cBAG FGAB | AG G4 F2 | G8 |] %35
w: mi- ni,|_ Do-|||||* * * mi-|ni.|
V:2
 G8 | G4 G4 | d8- | d8 | f8 | f6 ed | e4 d3 c | d2 e2 f3 =e | f2 g2 =e2 f2 | f2 ed c2 d2- | %10
w: Be-|ne- di-|ctus,|_|be-|ne- * *|||||
 d2 e2 f2 g2- | gf d2 e4 | d4 z4 | d4 c2 d2- | d2 cB A2 G2 | B4 c4 | d2 e4 dc | B3 c de f2 | %18
w: |* * * di-|ctus|qui ve- *|||||
 d2 e2 f3 e | dc B2 c4 | B4 z2 d2 | d2 d2 e4 | d4 c2 B2 | A4 G3 A | B2 c2 cBAG | F2 c2 d3 e | %26
w: ||nit, in|no- mi- ne|Do- * *|mi- ni, _|_ _ _ _ _ _|* in no- mi-|
 f3 e/f/ ed d2- | d2 c2 d4 | z4 G3 A |"^#" Bcde f3 e | cdef g3 f | de f4 ed | e4 d2 cB | cBAG A4 | %34
w: ne _ _ _ _ Do-|* mi- ni,|in _|_ _ _ _ no- *|* * * * mi- *|* * ne _ _|Do- * * *|* * * * mi-|
 G8 |] %35
w: ni|

